X:2
T:Mille regretz
C:Tielman Susato
S:Susato1551
R:Pavane
M:4/2%org: C|
L:1/2
T: Altus
K:C -8va
B4|A2d2|B3A|BcA2|c>def|g2f2|ee>cd|e2z2:|
|:g2ge|eefd|eed2|G2G2|Ac>BA|GGc>B|AGge|e2z2:|
|:G2GG|d>efg|e2e2|efff|e2d2|ccBc|B2c2|B2z2:|
